images/OHM.svg

<svg height="250" viewBox="0 0 250 250" width="250" xmlns="http://www.w3.org/2000/svg"><path d="m0 125c0-69.035156 55.964844-125 125-125s125 55.964844 125 125-55.964844 125-125 125-125-55.964844-125-125zm0 0" fill="#708b96"/><path d="m70 180h43v-20.582031c-15.667969-4.933594-27-19.261719-27-36.167969 0-20.988281 17.460938-38 39-38s39 17.011719 39 38c0 16.90625-11.332031 31.234375-27 36.167969v20.582031h43v-15.5h-20.90625c12.589844-9.6875 20.65625-24.621094 20.65625-41.375 0-29.203125-24.511719-52.875-54.75-52.875s-54.75 23.671875-54.75 52.875c0 16.753906 8.066406 31.6875 20.65625 41.375h-20.90625zm0 0" fill="#fff" fill-rule="evenodd"/></svg>

<svg xmlns="http://www.w3.org/2000/svg" xmlns:xlink="http://www.w3.org/1999/xlink" width="250px" height="250px" viewBox="0 0 250 250" version="1.1">
<g id="surface1">
<path style=" stroke:none;fill-rule:nonzero;fill:rgb(43.921569%,54.509807%,58.823532%);fill-opacity:1;" d="M 0 125 C 0 55.964844 55.964844 0 125 0 C 194.035156 0 250 55.964844 250 125 C 250 194.035156 194.035156 250 125 250 C 55.964844 250 0 194.035156 0 125 Z M 0 125 "/>
<path style=" stroke:none;fill-rule:evenodd;fill:rgb(100%,100%,100%);fill-opacity:1;" d="M 70 180 L 113 180 L 113 159.417969 C 97.332031 154.484375 86 140.15625 86 123.25 C 86 102.261719 103.460938 85.25 125 85.25 C 146.539062 85.25 164 102.261719 164 123.25 C 164 140.15625 152.667969 154.484375 137 159.417969 L 137 180 L 180 180 L 180 164.5 L 159.09375 164.5 C 171.683594 154.8125 179.75 139.878906 179.75 123.125 C 179.75 93.921875 155.238281 70.25 125 70.25 C 94.761719 70.25 70.25 93.921875 70.25 123.125 C 70.25 139.878906 78.316406 154.8125 90.90625 164.5 L 70 164.5 Z M 70 180 "/>
</g>
</svg>
